src/static/assets/images/facebook.svg

<!--?xml version="1.0" encoding="UTF-8"?-->
<svg width="13px" height="20px" viewBox="0 0 13 20" version="1.1" xmlns="http://www.w3.org/2000/svg" xmlns:xlink="http://www.w3.org/1999/xlink">
    <!-- Generator: Sketch 40.3 (33839) - http://www.bohemiancoding.com/sketch -->
    <title>facebook-ico</title>
    <desc>Created with Sketch.</desc>
    <defs></defs>
    <g id="Symbols" stroke="none" stroke-width="1" fill="none" fill-rule="evenodd">
        <g id="Footer-1" transform="translate(-1409.000000, -378.000000)" fill="#39579A">
            <g id="Footer">
                <g id="Group-14" transform="translate(1409.000000, 377.000000)">
                    <g id="facebook-ico" transform="translate(0.000000, 1.000000)">
                        <path d="M3.74356357,20 L3.71428571,10.9090909 L0,10.9090909 L0,7.27272727 L3.71428571,7.27272727 L3.71428571,5 C3.71428571,1.62600455 5.84844,0 8.92277286,0 C10.3954082,0 11.661065,0.107340909 12.0299121,0.155318182 L12.0299121,3.68134545 L9.89769857,3.68229545 C8.22570357,3.68229545 7.90196643,4.46013636 7.90196643,5.60155909 L7.90196643,7.27272727 L12.7678571,7.27272727 L10.9107143,10.9090909 L7.90196643,10.9090909 L7.90196643,20 L3.74356357,20 L3.74356357,20 Z" id="White_1_"></path>
                    </g>
                </g>
            </g>
        </g>
    </g>
</svg>

<svg width="13" height="20" viewBox="0 0 13 20" xmlns="http://www.w3.org/2000/svg">
    <path d="M3.744 20l-.03-9.09H0V7.272h3.714V5c0-3.374 2.134-5 5.209-5 1.472 0 2.738.107 3.107.155v3.526l-2.132.001c-1.672 0-1.996.778-1.996 1.92v1.67h4.866L10.91 10.91H7.902V20H3.744z" fill="#39579A" fill-rule="evenodd"/>
</svg>
